img/facebook_icon.svg

<svg height="30" viewBox="0 0 30 30" width="30" xmlns="http://www.w3.org/2000/svg"><g fill="#fff"><path d="m16.2821667 5.8085s-.2685.10783333-.8063334.31766667c-.8196666.32683333-1.4278333.8265-1.8226666 1.50383333-.4098334.709-.6146667 1.5215-.6146667 2.4411667v2.459h-2.82v.0213333 3.244.0211667h2.82v8.3746666h.02 3.3506667.022v-8.3746666h2.8188333c.0141667-.0996667.1563333-1.1886667.4221667-3.2651667 0-.014-.0053334-.0213333-.0183334-.0213333h-3.2226666v-1.8245c0-.5083334.0191666-.82583337.0621666-.95200003 0-.044.0426667-.1505.1276667-.31633334.1263333-.214.3311667-.37.6155-.46783333.1833333-.0705.5296667-.1065 1.039-.1065h1.5055v-.01966667-2.886-.022c-.7783333-.08383333-1.5966667-.12683333-2.4596667-.12683333h-.0851666z"/><path d="m14.9991667 29.867c-8.19633337 0-14.86450003-6.6688333-14.86450003-14.8658333 0-8.19833337 6.66816666-14.8681667 14.86450003-14.8681667 8.1971666 0 14.866 6.66983333 14.866 14.8681667 0 8.197-6.6688334 14.8658333-14.866 14.8658333zm0-28.40066667c-7.4611667 0-13.5311667 6.07183334-13.5311667 13.53483337 0 7.4618333 6.07 13.5325 13.5311667 13.5325 7.462 0 13.5326666-6.0708334 13.5326666-13.5325 0-7.46300003-6.0705-13.53483337-13.5326666-13.53483337z"/></g></svg>

<svg xmlns="http://www.w3.org/2000/svg" width="30" height="30" viewBox="0 0 30 30">
  <g fill="#FFF">
    <path d="M16.2821667,5.8085 C16.2821667,5.8085 16.0136667,5.91633333 15.4758333,6.12616667 C14.6561667,6.453 14.048,6.95266667 13.6531667,7.63 C13.2433333,8.339 13.0385,9.1515 13.0385,10.0711667 L13.0385,12.5301667 L10.2185,12.5301667 L10.2185,12.5515 L10.2185,15.7955 L10.2185,15.8166667 L13.0385,15.8166667 L13.0385,24.1913333 L13.0585,24.1913333 L16.4091667,24.1913333 L16.4311667,24.1913333 L16.4311667,15.8166667 L19.25,15.8166667 C19.2641667,15.717 19.4063333,14.628 19.6721667,12.5515 C19.6721667,12.5375 19.6668333,12.5301667 19.6538333,12.5301667 L16.4311667,12.5301667 L16.4311667,10.7056667 C16.4311667,10.1973333 16.4503333,9.87983333 16.4933333,9.75366667 C16.4933333,9.70966667 16.536,9.60316667 16.621,9.43733333 C16.7473333,9.22333333 16.9521667,9.06733333 17.2365,8.9695 C17.4198333,8.899 17.7661667,8.863 18.2755,8.863 L19.781,8.863 L19.781,8.84333333 L19.781,5.95733333 L19.781,5.93533333 C19.0026667,5.8515 18.1843333,5.8085 17.3213333,5.8085 L17.2361667,5.8085 L16.2821667,5.8085 L16.2821667,5.8085 Z"/>
    <path d="M14.9991667,29.867 C6.80283333,29.867 0.134666667,23.1981667 0.134666667,15.0011667 C0.134666667,6.80283333 6.80283333,0.133 14.9991667,0.133 C23.1963333,0.133 29.8651667,6.80283333 29.8651667,15.0011667 C29.8651667,23.1981667 23.1963333,29.867 14.9991667,29.867 Z M14.9991667,1.46633333 C7.538,1.46633333 1.468,7.53816667 1.468,15.0011667 C1.468,22.463 7.538,28.5336667 14.9991667,28.5336667 C22.4611667,28.5336667 28.5318333,22.4628333 28.5318333,15.0011667 C28.5318333,7.53816667 22.4613333,1.46633333 14.9991667,1.46633333 Z"/>
  </g>
</svg>
